X: 31
T:Broken Pledge, The
M:C|
L:1/8
S:De Danann
R:reel
K:DMix
dcAG FDDB|cAGF ECCE|D2  (3EFG Addc|AcGc Adfe|dcAG FGAB|c2 cB cAGE|D2  (3
EF
G AddB|cAGE ED D2 :|
|:dcAG Acde|f2 df ecAB|cAGE GAcd|ec (3cBc eage|dcAG Acde|f2 fd ecAG|F2 F
G AddB|cAGE ED D2 :|
